!!!OTL: ROSA WILLEN WIJ DANSEN
!!!ARE: Europa, Mitteleuropa, Deutschland
!!!SCT: E0976
!!!YEM: Copyright 1995, estate of Helmut Schaffrath.
**kern
*ICvox
*Ivox
*M6/8
*k[]
*a:
=1
{4a
8ee
8ee
8ee
8dd
=2
4.ee
4ccn}
{8ccn
=3
4.dd
4ccn
8ccn
=4
4.dd
4.ccn}
=5
{4a
8ccn
8ccn
8b
8a
=6
4gn
8e
4.e}
=7
{8a
8b
8ccn
4b
8a
=8
4gn
8e
4e}
{8ee
=9
4.ee
4.b
=10
[4.a
4a]
8r}
==
!!!AGN: Tanz - Lied, Reigen
!!!ONB: ESAC (Essen Associative Code) Database: ERK2
!!!AMT: compound duple
!!!AIN: vox
!!!EED: Helmut Schaffrath
!!!EEV: 1.0
*-
